X:1
T:Melrose, LM
T:Frederick Charles Maker (1844-1927)
T:Melrose, LM
T:Public Domain
C:Frederick Charles Maker (1844-1927)
Z:Public Domain
%%score ( 1 2 ) ( 3 4 )
L:1/8
M:3/4
K:C
V:1 treble 
V:2 treble 
V:3 bass 
V:4 bass 
V:1
 C2 E2 G2 | c4 G2 | [GB]4 [FA]2 | [EG]6 | [CE]2 [CE]2 [B,D]2 | C4 [B,D]2 | [CE]4 [D^F]2 | (D4 F2) | %8
 [EG]2 [CE]2 C2 | [CA]4 [^CA]2 | (A2 ^F2) D2 | (D4 G2) | [Gc]2 [GB]2 [FA]2 | [EG]4 C2 | %14
 [B,E]4 [B,D]2 | C6 |] %16
V:2
 C2 E2 G2 | c4 G2 | x6 | x6 | x6 | C4 x2 | x6 | G6 | x4 C2 | x6 | D4 D2 | d6 | x6 | x4 C2 | x6 | %15
 C6 |] %16
V:3
 C,2 E,2 G,2 | C4 [E,C]2 | (F,3 G,) ([A,C][B,D]) | [CE]6 | [C,G,]2 G,2 [F,G,]2 | [E,G,]4 [D,G,]2 | %6
 (C,2 B,,2) [A,,C]2 | ([G,,B,]2 [A,,C]2 [B,,D]2) | [C,C]2 [C,G,]2 [E,_B,]2 | [F,A,]4 [E,G,]2 | %10
 (^F,2 A,2) [F,C]2 | ([G,B,]4 [F,D]2) | [E,C]2 [E,C]2 [E,C]2 | [C,C]4 [A,,^F,]2 | %14
 [G,,G,]4 [G,,F,]2 | [C,E,]6 |] %16
V:4
 C,2 E,2 G,2 | C4 x2 | C4 x2 | x6 | x2 G,2 x2 | x6 | G,4 x2 | x6 | x6 | x6 | D,4 x2 | x6 | x6 | %13
 x6 | x6 | x6 |] %16

